icon/lg/aws-documentdb.svg

<?xml version="1.0" encoding="UTF-8"?>
<svg viewBox="0 0 256 256" version="1.1" xmlns="http://www.w3.org/2000/svg" xmlns:xlink="http://www.w3.org/1999/xlink" preserveAspectRatio="xMidYMid" height="1em" width="1em">
  <defs>
    <linearGradient x1="0%" y1="100%" x2="100%" y2="0%" id="linearGradient-1">
      <stop stop-color="#2E27AD" offset="0%"/>
      <stop stop-color="#527FFF" offset="100%"/>
    </linearGradient>
  </defs>
  <g>
    <rect fill="url(#linearGradient-1)" x="0" y="0" width="256" height="256"/>
    <path d="M110.4,44.777065 C143.4016,44.777065 166.4,54.8592045 166.4,63.9082598 C166.4,72.9573149 143.4016,83.0394547 110.4,83.0394547 C77.3984,83.0394547 54.4,72.9573149 54.4,63.9082598 C54.4,54.8592045 77.3984,44.777065 110.4,44.777065 L110.4,44.777065 Z M109.744,214.422935 C77.1296,214.422935 54.4,204.120787 54.4,194.877231 L54.4,167.079605 C64.3872,175.439937 84.7104,180.924213 109.3152,180.924213 C114.9888,180.924213 120.6976,180.608548 126.288,179.989973 L125.5808,173.65117 C120.224,174.244237 114.7488,174.547148 109.3152,174.547148 C78.8672,174.547148 57.056,165.517224 54.4,156.777457 L54.4,122.417831 C64.3872,130.778163 84.7104,136.25925 109.3152,136.25925 C115.1072,136.25925 120.8224,135.940397 126.3008,135.309068 L125.568,128.976642 C120.3296,129.579275 114.864,129.882185 109.3152,129.882185 C78.8672,129.882185 57.056,120.85545 54.4,112.115682 L54.4,75.3742224 C63.6128,83.2403322 82.6176,89.4165197 110.4,89.4165197 C138.1824,89.4165197 157.1872,83.2403322 166.4,75.3742224 L166.4,86.2279872 L172.8,86.2279872 L172.8,63.9082598 C172.8,51.5431309 150.9312,38.4 110.4,38.4 C69.8688,38.4 48,51.5431309 48,63.9082598 L48,194.877231 C48,209.652891 74.544,220.8 109.744,220.8 C138.016,220.8 161.8944,213.342022 169.1616,202.24593 L163.7984,198.760864 C158.704,206.544071 138.4992,214.422935 109.744,214.422935 L109.744,214.422935 Z M186.2624,134.936009 C188.064,134.936009 189.6544,135.653429 190.7392,136.960727 C192.736,139.352127 192.4128,142.9743 192.2176,144.25609 C192.3104,150.996647 196.032,152.313511 196.464,152.444241 C197.84,152.85875 198.8096,154.150106 198.7744,155.584945 C198.7392,157.019785 197.7888,158.263313 196.3904,158.610863 C196.0288,158.722461 192.2144,160.071211 192.2144,167.028588 C192.288,170.781491 190.4864,174.942526 186.3584,175.066879 L183.9008,175.066879 L183.9008,168.689814 L185.5904,168.689814 C185.7184,168.265739 185.8176,167.599336 185.8144,167.073228 C185.8144,161.254156 187.7664,157.679811 189.8528,155.521175 C187.7664,153.365727 185.8144,149.800948 185.8144,144.004196 C185.8144,143.809695 185.8336,143.612006 185.8688,143.420694 C185.9904,142.735159 185.9904,141.835993 185.888,141.313074 L183.9008,141.313074 L183.9008,134.936009 L186.2624,134.936009 Z M171.2864,134.936009 L173.7472,134.936009 L173.7472,141.313074 L172.0608,141.313074 C171.9296,141.737149 171.8304,142.403552 171.8336,142.92966 C171.8336,148.748732 169.8848,152.323077 167.7984,154.481713 C169.8848,156.637161 171.8336,160.20194 171.8336,165.998692 C171.8336,166.196381 171.8144,166.390882 171.7824,166.582194 C171.6608,167.267728 171.6608,168.166894 171.7632,168.689814 L173.7472,168.689814 L173.7472,175.066879 L171.3856,175.066879 C169.584,175.066879 167.9936,174.349459 166.9056,173.045349 C164.912,170.65395 165.2384,167.031777 165.4304,165.746798 C165.3408,159.009429 161.616,157.689377 161.184,157.561836 C159.8048,157.144138 158.8384,155.852782 158.8704,154.417942 C158.9056,152.986292 159.8592,151.739575 161.2576,151.392025 C161.6224,151.280427 165.4336,149.931677 165.4336,142.9743 C165.36,139.224585 167.1584,135.060362 171.2864,134.936009 L171.2864,134.936009 Z M204.8,188.261026 L150.4,188.261026 L150.4,111.736247 L185.6,111.736247 L185.6,124.490377 C185.6,126.250447 187.0304,127.678909 188.8,127.678909 L204.8,127.678909 L204.8,188.261026 Z M192,111.736247 L192.784,111.736247 L202.4576,121.301844 L192,121.301844 L192,111.736247 Z M210.2528,120.026431 L196.3552,106.283856 C195.76,105.690789 194.9472,105.359182 194.1024,105.359182 L192,105.359182 L190.832,105.359182 L180.9536,93.7337926 C180.3424,93.0163728 179.4496,92.6050522 178.5088,92.6050522 L134.4,92.6050522 C132.6304,92.6050522 131.2,94.0335146 131.2,95.7935843 L131.2,178.695429 C131.2,180.455499 132.6304,181.883961 134.4,181.883961 L140.8,181.883961 L140.8,175.506896 L137.6,175.506896 L137.6,98.9821168 L177.024,98.9821168 L182.4448,105.359182 L147.2,105.359182 C145.4304,105.359182 144,106.787644 144,108.547714 L144,191.449559 C144,193.209628 145.4304,194.638091 147.2,194.638091 L208,194.638091 C209.7696,194.638091 211.2,193.209628 211.2,191.449559 L211.2,122.290289 C211.2,121.438951 210.8608,120.625876 210.2528,120.026431 L210.2528,120.026431 Z" fill="#FFFFFF"/>
  </g>
</svg>

<svg width="256" height="256" xmlns="http://www.w3.org/2000/svg" preserveAspectRatio="xMidYMid"><defs><linearGradient x1="0%" y1="100%" x2="100%" y2="0%" id="a"><stop stop-color="#2E27AD" offset="0%"/><stop stop-color="#527FFF" offset="100%"/></linearGradient></defs><path fill="url(#a)" d="M0 0h256v256H0z"/><path d="M110.4 44.777c33.002 0 56 10.082 56 19.131 0 9.05-22.998 19.131-56 19.131-33.002 0-56-10.082-56-19.13 0-9.05 22.998-19.132 56-19.132Zm-.656 169.646c-32.614 0-55.344-10.302-55.344-19.546V167.08c9.987 8.36 30.31 13.844 54.915 13.844 5.674 0 11.383-.315 16.973-.934l-.707-6.339c-5.357.593-10.832.896-16.266.896-30.448 0-52.259-9.03-54.915-17.77v-34.36c9.987 8.361 30.31 13.842 54.915 13.842 5.792 0 11.507-.319 16.986-.95l-.733-6.332c-5.238.602-10.704.905-16.253.905-30.448 0-52.259-9.027-54.915-17.766V75.374c9.213 7.866 28.218 14.043 56 14.043s46.787-6.177 56-14.043v10.854h6.4v-22.32c0-12.365-21.869-25.508-62.4-25.508S48 51.543 48 63.908v130.97c0 14.775 26.544 25.922 61.744 25.922 28.272 0 52.15-7.458 59.418-18.554l-5.364-3.485c-5.094 7.783-25.299 15.662-54.054 15.662Zm76.518-79.487c1.802 0 3.392.717 4.477 2.025 1.997 2.391 1.674 6.013 1.479 7.295.092 6.74 3.814 8.058 4.246 8.188 1.376.415 2.346 1.706 2.31 3.14-.035 1.436-.985 2.68-2.384 3.027-.361.111-4.176 1.46-4.176 8.418.074 3.752-1.728 7.914-5.856 8.038h-2.457v-6.377h1.69c.127-.424.227-1.09.223-1.617 0-5.819 1.952-9.393 4.039-11.552-2.087-2.155-4.039-5.72-4.039-11.517 0-.194.02-.392.055-.583.121-.686.121-1.585.019-2.108h-1.987v-6.377h2.361Zm-14.976 0h2.461v6.377h-1.686a6.05 6.05 0 0 0-.227 1.617c0 5.819-1.95 9.393-4.036 11.552 2.087 2.155 4.036 5.72 4.036 11.517 0 .197-.02.392-.052.583-.121.686-.121 1.585-.019 2.108h1.984v6.377h-2.361c-1.802 0-3.392-.718-4.48-2.022-1.994-2.391-1.668-6.013-1.476-7.298-.09-6.738-3.814-8.058-4.246-8.185-1.38-.418-2.346-1.71-2.314-3.144.036-1.432.99-2.678 2.388-3.026.364-.112 4.176-1.46 4.176-8.418-.074-3.75 1.724-7.914 5.852-8.038Zm33.514 53.325h-54.4v-76.525h35.2v12.754c0 1.76 1.43 3.189 3.2 3.189h16v60.582ZM192 111.736h.784l9.674 9.566H192v-9.566Zm18.253 8.29-13.898-13.742a3.193 3.193 0 0 0-2.253-.925H190.832l-9.878-11.625a3.21 3.21 0 0 0-2.445-1.129H134.4c-1.77 0-3.2 1.429-3.2 3.189v82.901c0 1.76 1.43 3.189 3.2 3.189h6.4v-6.377h-3.2V98.982h39.424l5.42 6.377H147.2c-1.77 0-3.2 1.429-3.2 3.189v82.902c0 1.76 1.43 3.188 3.2 3.188H208c1.77 0 3.2-1.428 3.2-3.188v-69.16c0-.851-.34-1.664-.947-2.264Z" fill="#FFF"/></svg>
